svg/24/logo-after-effects.svg

<svg width="24" height="24" viewBox="0 0 24 24" fill="currentColor" xmlns="http://www.w3.org/2000/svg"><path d="M7.77091 12.2417H9.72768C9.67814 12.0766 9.62033 11.8908 9.55427 11.6843C9.48809 11.4781 9.41791 11.2572 9.34374 11.0218L9.12082 10.3158C9.04653 10.0805 8.9784 9.85349 8.91646 9.63469C8.85456 9.41603 8.79883 9.21582 8.74928 9.03404H8.73688C8.6672 9.36853 8.58039 9.69922 8.47681 10.0248C8.36109 10.3963 8.24344 10.7761 8.12386 11.1642C8.00409 11.5524 7.88644 11.9115 7.77091 12.2417Z"/><path d="M16.366 11.9359H14.7436C14.7695 11.7452 14.826 11.5599 14.9108 11.3872C15.0063 11.2014 15.1537 11.0475 15.3351 10.9442C15.5166 10.8408 15.7241 10.7925 15.9326 10.8051C16.154 10.7966 16.3721 10.8612 16.5533 10.9887C16.7346 11.1162 16.8689 11.2997 16.9357 11.511C16.9661 11.603 16.9828 11.699 16.9853 11.7958V11.8702C16.9305 11.903 16.8692 11.9233 16.8056 11.9297C16.7107 11.9338 16.5642 11.9359 16.366 11.9359Z"/><path fill-rule="evenodd" clip-rule="evenodd" d="M17.9616 3H6.03852C4.23297 3 2.76929 4.46368 2.76929 6.26923V17.7308C2.76929 19.5363 4.23297 21 6.03852 21H17.9616C19.7671 21 21.2308 19.5363 21.2308 17.7308V6.26923C21.2308 4.46368 19.7671 3 17.9616 3ZM10.1859 13.7692H7.32504L6.74297 15.5808C6.73505 15.6138 6.71587 15.6429 6.68873 15.6633C6.6616 15.6836 6.62822 15.6939 6.59434 15.6922H5.14535C5.06272 15.6922 5.03382 15.6468 5.05866 15.556L7.5356 8.45196L7.54101 8.43574C7.56396 8.36696 7.58694 8.29811 7.60989 8.21C7.64233 8.04477 7.65892 7.87682 7.65943 7.70844C7.65775 7.69667 7.65884 7.68466 7.6626 7.67338C7.66637 7.6621 7.6727 7.65184 7.68111 7.64343C7.68952 7.63502 7.69978 7.62868 7.71106 7.62491C7.72234 7.62115 7.73435 7.62006 7.74612 7.62174H9.71529C9.77294 7.62174 9.80597 7.64238 9.81437 7.68367L12.6257 15.5684C12.6504 15.651 12.6257 15.6923 12.5514 15.6922H10.9414C10.9137 15.6953 10.8859 15.6882 10.8631 15.6723C10.8403 15.6563 10.8241 15.6326 10.8175 15.6056L10.1859 13.7692ZM14.7436 13.0641H17.1834C17.2783 13.0641 17.3708 13.071 17.461 13.0778C17.5591 13.0851 17.6544 13.0923 17.7469 13.09C17.9243 13.0859 18.073 13.0777 18.1927 13.0653C18.3124 13.0529 18.3971 13.0467 18.4466 13.0467C18.4741 13.0467 18.5006 13.0366 18.5212 13.0184C18.5417 13.0001 18.5549 12.9749 18.5581 12.9476C18.5664 12.8816 18.5767 12.7742 18.589 12.6256C18.6014 12.4771 18.6076 12.3119 18.6076 12.1302C18.6067 11.8107 18.5566 11.4933 18.459 11.189C18.3588 10.8733 18.2037 10.5777 18.0008 10.3159C17.7845 10.0485 17.5059 9.83816 17.1896 9.70323C16.8134 9.53789 16.4053 9.45755 15.9945 9.46793C15.4991 9.46793 15.0697 9.53159 14.7065 9.70904C14.3478 9.88286 14.031 10.1321 13.7776 10.4397C13.5207 10.751 13.3253 11.1082 13.2017 11.4924C13.0734 11.8863 13.0086 12.2981 13.0098 12.7123C13.0097 13.0917 13.0639 13.4691 13.1708 13.8331C13.2787 14.2019 13.4598 14.5452 13.7033 14.8425C13.964 15.158 14.2948 15.4082 14.6693 15.5732C15.0655 15.7548 15.5567 15.8456 16.1431 15.8456C16.5086 15.8513 16.8737 15.8202 17.2329 15.7527C17.4974 15.7095 17.7552 15.6327 18.0002 15.5242C18.0227 15.51 18.0418 15.491 18.0559 15.4684C18.0702 15.4396 18.0766 15.4076 18.0745 15.3756V14.199C18.0745 14.1247 18.0538 14.1042 18.0126 14.1371C17.7917 14.2242 17.5611 14.2844 17.3258 14.3161C17.0627 14.3693 16.7954 14.3987 16.527 14.4038C16.1888 14.411 15.8529 14.3452 15.5424 14.2108C15.3133 14.1143 15.1174 13.9529 14.9789 13.7464C14.8537 13.5379 14.7735 13.3055 14.7436 13.0641Z"/></svg>

<svg xmlns="http://www.w3.org/2000/svg" width="24" height="24" fill="currentColor" viewBox="0 0 24 24">
  <path d="M7.771 12.242h1.957a32.58 32.58 0 0 0-.173-.558 75.216 75.216 0 0 1-.211-.662l-.223-.706a23.807 23.807 0 0 1-.204-.681 64.675 64.675 0 0 1-.167-.601h-.013c-.07.335-.156.665-.26.99a384.2 384.2 0 0 0-.353 1.14c-.12.388-.237.748-.353 1.078Zm8.595-.306h-1.622a1.79 1.79 0 0 1 .167-.549 1.074 1.074 0 0 1 1.022-.582 1.012 1.012 0 0 1 1.003.706c.03.092.047.188.05.285v.074a.434.434 0 0 1-.18.06c-.095.004-.242.006-.44.006Z"/>
  <path fill-rule="evenodd" d="M17.962 3H6.039a3.27 3.27 0 0 0-3.27 3.27v11.46A3.27 3.27 0 0 0 6.04 21h11.923a3.27 3.27 0 0 0 3.27-3.27V6.27A3.27 3.27 0 0 0 17.961 3Zm-7.776 10.77h-2.86l-.583 1.81a.146.146 0 0 1-.148.112h-1.45c-.082 0-.11-.045-.086-.136l2.477-7.104.005-.016c.023-.069.046-.138.07-.226a2.72 2.72 0 0 0 .049-.502.077.077 0 0 1 .086-.086h1.97c.057 0 .09.02.099.062l2.81 7.884c.026.083 0 .124-.073.124h-1.61a.115.115 0 0 1-.124-.086l-.632-1.837Zm4.558-.706h2.44c.095 0 .187.007.277.014.098.007.194.014.286.012a5.74 5.74 0 0 0 .446-.025c.12-.012.204-.018.254-.018a.112.112 0 0 0 .111-.1 6.687 6.687 0 0 0 .05-.817 3.096 3.096 0 0 0-.149-.941 2.816 2.816 0 0 0-.458-.873 2.106 2.106 0 0 0-.811-.613 2.795 2.795 0 0 0-1.195-.235c-.496 0-.925.064-1.288.241a2.766 2.766 0 0 0-.93.73 3.187 3.187 0 0 0-.575 1.053 3.974 3.974 0 0 0-.031 2.34c.108.37.29.713.533 1.01.26.316.591.566.965.731.397.182.888.273 1.474.273.366.005.73-.026 1.09-.093a3.15 3.15 0 0 0 .767-.229.178.178 0 0 0 .056-.056.184.184 0 0 0 .019-.092v-1.177c0-.074-.02-.095-.062-.062a3.024 3.024 0 0 1-.687.18c-.263.052-.53.082-.799.087a2.352 2.352 0 0 1-.984-.193 1.274 1.274 0 0 1-.564-.465 1.74 1.74 0 0 1-.235-.682Z" clip-rule="evenodd"/>
</svg>
